X:1
T:The Well-Tempered Clavier Part I Fuga XVII
T:BWV 862
T:J. S. Bach
%%score { ( 1 4 ) | ( 2 3 ) }
L:1/8
M:4/4
K:Ab
V:1 treble nm="Harp"
V:4 treble 
V:2 bass 
V:3 bass 
V:1
 z8 | z8 | z8 | z8 | z2 Ae cAfd | e6 a2- | a2 g2 f4- | f/B/c/=d/ e2- ea _db | d2 c2 B4 | %9
 A4- A/A/B/c/ d2- | d/B/c/e/ a/g/a/b/ c'/b/a/g/ f/g/a/c'/ | b/a/g/f/ e/f/g/b/ a/g/f/e/ =d/e/f/a/ | %12
 g/f/=e/g/ f/e/f/g/ c f2 g/e/ | f/=e/f/g/ a4 g2- | g2 f4 =e2 | f2- f/e/d/c/ B/A/G/A/ B/d/c/B/ | %16
 =A/c/d/e/ f/e/d/c/ B/d/_g/f/ e/d/c/B/ | =A2 B/c/ d2 c/d/ e2- | e/c/d/f/ bf _ge ae | %19
 fd/f/ _gd ec fc | d4- d2 cf | =dB e4 d2 | e2 z2 z4 | z2 Ae cA_ge | f2 fg e2 ef | d2 db cd/B/ ca | %26
 B2 z/ e/f/g/ a2- a/g/f/a/ | g6- g/c/f- | f/e/d/f/ e4 d2- | d/c/B/d/ cf dB_ge | f2 af g2 bg | %31
 af d2- de cf | c2 B2- BA/G/ Ae | cAfd eG A2- | A2 G2 !fermata!A4 |] %35
V:2
 z2[I:staff -1] A,E CA,FD | E2- E/D/C/D/ E/F/G/E/ A/B/c/B/ | A/G/F/A/ G4 F2- | %3
 F/E/=D/F/ E2- E_D/C/ D/F/B/A/ | G/F/E/D/[I:staff +1] C/B,/C/D/[I:staff -1] E2[I:staff +1] A,2 | %5
 G,2 A,/B,/C B,>B, A,C | F, z z2 z4 | E,2- E,/E,/F,/G,/ A,/B,/C/B,/ A,/G,/F,/A,/ | %8
 G,E, z/ A,,/B,,/C,/ D,/E,/F,/E,/ D,/C,/B,,/D,/ | z2 A,E CA,FD | E2 E4 D2- | D2 C4 B,2- | %12
 B,2 A,G,- G,/B,/A,/G,/ F,/=E,/F,/G,/ | A,/B,/A,/G,/ F, z z4 | z8 | z8 | z2 B,F DB,_GE | %17
 F2 B,4 =A,/B,/C/A,/ | F,B,/C/ D4 C2- | C2 B,4 =A,2 | %20
 B,/E/D/C/ B,/A,/G,/F,/ E,/D/C/B,/ A,/G,/F,/G,/ | A,/C/B,/A,/ G,/F,/E,/D,/ C,A,B,B,, | %22
 E,2- E,/F,/G,/A,/ B,/C/D/C/ B,/A,/G,/B,/ | A,/E,/F,/G,/ A,/B,/C/D/ E/F/_G/F/ E/D/C/E/ | %24
 D/E/F/E/ D/C/B,/D/ C/D/E/D/ C/B,/=A,/C/ | B,/C/D/C/ B,/A,/G,/B,/ A,/B,/A,/G,/ F,/E,/F,/D,/ | %26
 E,/D,/C,/B,,/ A,, z z4 | z2 G,C A,F,=D=B, | C/E,/F,/G,/ A,/B,/C/B,/ A,/G,/F,/G,/ A,/G,/F,/E,/ | %29
 F,/E,/D,/F,/ D, z z4 |[I:staff -1] A2[I:staff +1] z2[I:staff -1] B2[I:staff +1] z2 | %31
[I:staff -1] c[I:staff +1] z z2 z[I:staff -1] G AF | E2 D2 C2[I:staff +1] z[I:staff -1] E | %33
 E[I:staff +1] z z[I:staff -1] F E[I:staff +1] z z[I:staff -1] B, | B,2[I:staff +1] E,2 E,4 |] %35
V:3
 x8 | z2 E,A, G,E,CA, | B,E, B,G, A,E, A,F, | G,2- G,/C,/D,/E,/ F,/G,/A,/F,/ B,/C/D/C/ | %4
 B,/A,/G,/B,/ A,2- A,/A,,/B,,/C,/ D,/E,/F,/E,/ | D,/C,/B,,/D,/ C,>=D, E,/F,/G,- G,/G,/F,/E,/ | %6
 =D,/B,,/C,/D,/ E,2- E,A, D,C | x8 | x8 | C,2- C,/D,/E,/C,/ F,2- F,/E,/F,/D,/ | %10
 A,/G,/A,/B,/ CG, A,F, B,F, | G,E, A,E, F,=D, G,D, | =E,C, =D,_E, F,2 B,,2 | %13
 F,2 z/ F,,/G,,/A,,/ B,,/A,,/G,,/F,,/ E,,/F,,/G,,/B,,/ | %14
 A,,/G,,/F,,/E,,/ D,,/E,,/F,,/A,,/ G,,B,, C,C,, | F,,/C,/=D,/=E,/ F,2- F,B, E,C | %16
 E,=A, D,2 _G,2 z G,/F,/ | E,/_G,/F,/E,/ D,/C,/B,,/D,/ E,/F,/G,/E,/ F,2 | B,,2 z2 z4 | x8 | x8 | %21
 x8 | x8 | x8 | x8 | x8 | z2 A,,E, C,A,,F,D, | E,2 =E,/B,/A,/G,/ F,4 | C,4 D,4 | %29
 A,,2- A,,/F,,/G,,/A,,/ B,,/C,/D,/E,/ D,/C,/B,,/A,,/ | %30
 D,/C,/D,/F,/ E,/=D,/C,/B,,/ E,/D,/E,/G,/ F,/=E,/D,/C,/ | %31
 F,/G,/A,/F,/ B,/A,/G,/F,/ E,/D,/C,/B,,/ A,,/B,,/C,/D,/ | E,/D,/C,/D,/ E,E,, F,,2 E,,/F,,/G,,/ z/ | %33
 A,,/B,,/C,/E,/ D,/C,/B,,/A,,/ G,,/F,,/E,,/D,,/ C,,/E,,/D,,/F,,/ | E,,4 !fermata!A,,4 |] %35
V:4
 x8 | x8 | x8 | x8 | x8 | z2 EA GEcA | B2- B/[I:staff +1]E/[I:staff -1]F/G/ A/B/c/B/ A/G/F/A/ | %7
 G4[I:staff +1] F4 |[I:staff -1] z/ E/F/G/ A4 G2 | AG/F/ E/D/C/D/ E z z2 | A z z2 z4 | x8 | %12
 z2 Fc AFdB | c=d/=e/ fc _dB_eB | cAdA B/c/d/c/ B/A/G/B/ | A2 z2 z4 | x8 | z2 FB _GEc=A | %18
 B2 z/ F/_G/A/ B/A/G/F/ E/F/G/B/ | A/_G/F/E/ D/E/F/A/ G/F/E/D/ C/D/E/G/ | F2 FB GE- EA | %21
 F=D z G A/B/c/B/ A/G/F/A/ | G/A/B/G/ EB GEdB | c z z2 z2 ce- | eA Bd- dG =Ac- | cF B4 A2- | %26
 A/G/A/B/ c2- c/d/e/c/ d2- | d/c/B/d/ c2- c/B/A/G/ A>A | G z EA FDBG | A2 z2 z2 z c | %30
 ed z =d fe z =e | f z z B GB cA | A3 G F2 z B | A z z B z z z F | B,/C/D/F/ E/D/C/D/ C4 |] %35

